X: 1
T:Boys of Sligo, The
T:Convenience Reel, The
T:Mark McLoughlin's
C:Olcan Masterson's
R:reel
D:Dervish: The Boys of Sligo
Z:id:hn-reel-230
M:C|
K:D
dABA dABA|GAFA EADA|dABA dABA|1 FAEA D3A:|2 FAEA D4||
|:df~f2 dfed|cdef gece|df~f2 dfed|1 cABc d3A:|2 cABc defg||
|:~a3g f2ed|Aeed efge|~a3g f2ed|Addc defg|
aA~A2 ~a3f|gA~A2 ~g3e|f2af gfed|1 cABc defg:|2 cABc d2 (3ABc||
"Variations:"
dABA dABA|GAFA EADA|dABA dABA|FAEA D2fe|
dABA FAdA|~G3F EADA|d2BA dABA|FAEA D4||
|:df~f2 d2ed|cAce gece|df~f2 d2ed|1 cABc d2 (3ABc:|2 cABc defg||
|:a2ag ~f3d|~e3d efge|~a3g f2fd|cABc defg|
aA~A2 aAaA|gA~A2 gAgA|f2af gfed|1 cABc defg:|2 cABc d2dA||
